packages/icons/src/keyboard.svg

<svg xmlns="http://www.w3.org/2000/svg" width="24" height="24" fill="none" viewBox="0 0 24 24">
  <path fill="#000" d="M21 3H3c-1.1 0-2 .9-2 2v14c0 1.1.9 2 2 2h18c1.1 0 2-.9 2-2V5c0-1.1-.9-2-2-2Zm0 16H3V5h18v14ZM9 7h2v2H9V7ZM5 7h2v2H5V7Zm3 8h8v2H8v-2Zm5-8h2v2h-2V7Zm-4 4h2v2H9v-2Zm-4 0h2v2H5v-2Zm8 0h2v2h-2v-2Zm4-4h2v2h-2V7Zm0 4h2v2h-2v-2Z"/>
</svg>

<svg width="24" height="24" viewBox="0 0 24 24" fill="none" xmlns="http://www.w3.org/2000/svg">
<path d="M21 3H3C1.9 3 1 3.9 1 5V19C1 20.1 1.9 21 3 21H21C22.1 21 23 20.1 23 19V5C23 3.9 22.1 3 21 3ZM21 19H3V5H21V19ZM9 7H11V9H9V7ZM5 7H7V9H5V7ZM8 15H16V17H8V15ZM13 7H15V9H13V7ZM9 11H11V13H9V11ZM5 11H7V13H5V11ZM13 11H15V13H13V11ZM17 7H19V9H17V7ZM17 11H19V13H17V11Z" fill="black"/>
</svg>
